X:1
T:James Gibb editions
T:Lobet den Herren der zu Zion wohnet - Schütz
T:#
%%score [ 1 2 ] 3
L:1/8
Q:1/4=200
M:none
K:C
V:1 treble nm="Alto I"
V:2 treble nm="Alto II"
V:3 bass nm="Continuo"
V:1
"^Heinrich Schütz\n(1585-1672)""^Lobet den Herren der zu Zion wohnet, SWV 293""^Psalm 9: 11-12" D12 B,2 B,2 | %1
w: Lo- bet den|
 A,8 G,4 C2 D2 | E2 F2 (G8 ^F4) | G8 z8 | z4 G8 F2 F2 | E8 D4 D4- | D4 C2 C2 (B,4 A,4- | %7
w: Her- ren, der zu|Zi- on woh\- *|net,|lo- bet den|Her- ren, lo\-|* bet den Her\- *|
 A,4 ^G,4) A,8 | A,2 B,2 C2 D2 (E3 D C4- | C4 B,4) C4 G,2 A,2 | B,2 C2 (D8 ^C4) | D8 z4 G,2 A,2 | %12
w: * * ren,|der zu Zi- on woh\- * *|* * net, der zu|Zi- on woh\- *|net, der zu|
 B,2 C2 D4 G,4 C2 D2 | E2 F2 (G2 FE A8) | G8 z4 D4 | C2 CB, C2 CA, B,4 B,2 G,2 | A,4 z4 z4 z2 C2 | %17
w: Zi- on woh- net, der zu|Zi- on woh\- * * *|net, ver-|kün- di- get un- ter den Leu- ten sein|Thun, ver-|
 B,2 B,A, B,2 B,G, A,4 A,2 B,2 | C4 z CB,A, B,4 B,2 G,2 | A,8 z4 G,4- | G,4 G,2 G,2 A,8 | %21
w: kün- di- get un- ter den Leu- ten sein|Thun, un- ter den Leu- ten sein|Thun, denn|* er ge- den-|
 G,8 z4 B,4 | B,2 B,2 C8 B,4 | z2 B,2 E6 F2 D4 | D4 ^C4 D8 | z16 | z8 z2 D3 DCD | %27
w: ket, denn|er ge- den- ket|und fra- get nach|ih- rem Blut,||er ver- gis- set|
 B,2 G,2 C4 A,2 A,2 D4- | D4 C2 C2 B,8 | A,4 z2 D3 DCD B,2 B,2 | E4 C2 C2 (B,2 C4 B,2) | %31
w: nicht des Schrei- ens, des Schrei\-|* ens der Ar-|men, er ver- gis- set nicht des|Schrei- ens der Ar\- * *|
 C2 G3 GFG E2 C2 F4 | D2 D2 G8 F2 F2 | E8 D4 DDCD | B,2 B,2 E4 C2 C2 F4 | D2 z2 GGFG E2 E2 A4 | %36
w: men, er ver- gis- set nicht des Schrei-|ens, des Schrei- ens der|Ar- men, er ver- gis- set|nicht des Schrei- ens, des Schrei-|ens, er ver- gis- set nicht des Schrei-|
 ^F2 F2 G8 E2 E2 | (^F2 G4 F2) G8 | %38
w: ens, des Schrei- ens der|Ar\- * * men,|
[Q:1/4=197] z4[Q:1/4=192] D4[Q:1/4=186] E4[Q:1/4=183] D2[Q:1/4=180] D2 | %39
w: des Schrei- ens der|
[Q:1/4=174] C8[Q:1/4=170] B,16 |] %40
w: Ar- men.|
V:2
 z16 | z16 | z8 D8- | D4 B,2 B,2 A,8 | G,4 G,2 A,2 B,2 C2 (D4- | D4 ^C4) D8 | z4 E8 C2 C2 | %7
w: ||Lo\-|* bet den Her-|ren, der zu Zi- on woh\-|* * net,|lo- bet den|
 B,8 A,8 | z8 C2 D2 E2 F2 | G8 E4 G4- | G4 F2 F2 E8 | D4 A,2 B,2 C2 D2 E4 | D4 z4 C2 D2 E2 F2 | %13
w: Her- ren,|der zu Zi- on|woh- net, lo\-|* bet den Her-|ren, der zu Zi- on woh-|net, der zu Zi- on|
 (G12 ^F4) | G8 z8 | z8 z4 z2 G2 | F2 FE F2 FD E4 E2 C2 | D4 z4 z4 z2 F2 | E2 ED E2 EC D4 D2 ^C2 | %19
w: woh\- *|net,|ver-|kiin- di- get un- ter den Leu- ten sein|Thun, ver-|kün- di- get un- ter den Leu- ten sein|
 D8 z8 | z16 | z4 D8 D2 D2 | E8 D4 z2 D2 | G8- G2 A2 F4 | E4 E4 D2 D3 DCD | %25
w: Thun,||denn er ge-|den- ket und|fra\- * get nach|ih- rem Blut, er ver- gis- set|
 B,2 G,2 C4 A,2 A,2 D4- | D4 B,2 B,2 A,8 | G,4 z4 z8 | z8 z2 E3 EDE | C2 C2 F4 D2 D2 G4- | %30
w: nicht des Schrei- ens, des Schrei\-|* ens der Ar-|men,|er ver- gis- set|nicht des Schrei- ens, des Schrei\-|
 G4 E2 E2 D8 | C2 E3 EDE C4 z4 | z2 A,2 E8 D2 D2 | (^C2 D4 C2) D8 | DDCD B,2 B,2 E4 C2 C2 | %35
w: * ens der Ar-|men, er ver- gis- set nicht|des Schrei- ens der|Ar\- * * men,|er ver- gis- set nicht des Schrei- ens, des|
 F4 D2 z2 CCB,C A,2 A,2 | D4 B,2 B,2 E4 C2 B,2 | A,8 B,4 D4 | E4 D2 D2 (C6 D2 | E8) D16 |] %40
w: Schrei- ens, er ver- gis- set nicht des|Schrei- ens, des Schrei- ens der|Ar- men, des|Schrei- ens der Ar\- *|* men.|
V:3
 G,,6 A,,2 B,,4 G,,4 | D,4- D,4 E,4 C,4- | C,4 B,,4 D,4- D,4 | G,,4 G,8 ^F,4 | G,4 E,8 D,4 | %5
w: |4 * * *|* 6 4 *|||
 x4- x4 D,6 C,2 | B,,4 C,4 E,8- | E,8 A,,4 A,2 G,2 | F,2 G,2 A,2 B,2 C4 A,4 | %9
w: 4 * *|* * ~~~~~~~~~4|||
 x4- x4 C,2 D,2 E,2 F,2 | G,4 D,4 x4- x4 | D,8 C,8 | G,,4 G,2 F,2 E,2 D,2 C,4- | C,4 E,4 x4- x4 | %14
w: 4 * * * *|* * 4||* * * 6 * *|* * 4|
 G,,8 G,8 | A,4 F,4 G,4 E,4 | D,8 C,4 A,,4 | G,,8 F,4 x2- x2 | C,8 G,4 x2- x2 | D,8 E,8 | %20
w: |||* * 5|* * 7||
 C,4 G,,4 D,8 | G,,8 G,8 | E,4 A,4 ^F,4 G,4 | x4- x4 x4- x4 | x4- x4 D,8 | G,,4 A,,8 B,,4 | %26
w: |||* 7|4 *||
 G,,8 D,8 | G,,4 A,,8 B,,4 | C,4- C,2 D,2 x4- x4 | A,,4 D,8 E,4 | C,8 x2- x4 x2 | C,4 C,8 D,4- | %32
w: ||9 8 * 4||* 3||
 D,4 E,4 F,4- F,2 G,2 | x2- x4 x2 D,4 G,,4 | G,,4- G,,4 A,,4- A,,4 | _B,,4 =B,,4 C,4 F,4 | %36
w: * * 9 8 *|~ * *|* 6 * 6|* 6 * *|
 D,4 G,4 C,8 | x2- x4 x2 G,,4 G,,4 | C,4 B,,4 C,8- | C,8 G,,16 |] %40
w: ||||

